X:105
T: Der gute Hirt (2-7) S. 31f
N: P0880
O: Lothringen
S: PINCK, Louis: Verklingende Weisen, Bd 2, Metz 1928]
R: geistliche, religise Lieder]
M: 3/4
L: 1/16
K: E
=D4E4A4 | =G6=F2E4 |
G4G6E=D | =C6=D2E4 |
E2D2E4A4 | =G6=F2E4 |
=c6=dcB6cB | A4G4A4 |
B2A2B4e4 | =d6=c2B4 | =c2B2A4B4 |
B2A2B4e4 | =d6=c2B4 | =c2B2A4B4 |
=g6=d2d8 | e6=c2B8
=d4d4B2A2 | =G4A4B4 |
B4 | A6=G2F4A4 | =G4F4E4 |
(3G2A2G2 | F4E4(3F2E2D2 | E8z4 |  |  |  |  |  |  |  |  |  |  |  |  |  |  |  |  |  |  |  |  |  |  |  |  |  |  |  |  | 
=g2F2 | E4B,4E4F4 | =G2B2A2G2F4 |  |  |  |  |  |  |  |  |  |  |  |  |  |  |  |  |  |  |  |  |  |  |  |  |  |  |  |  |  | 
f2=G2 | A6BA=G2F2 | E4(3D2E2F2E4 |  |  |  |  |  |  |  |  |  |  |  |  |  |  |  |  |  |  |  |  |  |  |  |  |  |  |  |  |  | 
=g2F2 | E4B,4E4F4 | =G2B2A2G2F4 |  |  |  |  |  |  |  |  |  |  |  |  |  |  |  |  |  |  |  |  |  |  |  |  |  |  |  |  |  | 
f2=G2 | A6BA=G2F2 | E4(3D2E2F2E4 |  |  |  |  |  |  |  |  |  |  |  |  |  |  |  |  |  |  |  |  |  |  |  |  |  |  |  |  |  | 
=g2A2 | B4B4B3A=G2A2 | A4A4 |  |  |  |  |  |  |  |  |  |  |  |  |  |  |  |  |  |  |  |  |  |  |  |  |  |  |  |  |  |  |  |  |  |  | 
=g2B2 | B4B4B3A=G2B2 | B4B8 |  |  |  |  |  |  |  |  |  |  |  |  |  |  |  |  |  |  |  |  |  |  |  |  |  |  |  |  |  |  |  |  |  | 
=g2F2 | E4B,4E4F4 | =G2B2A2G2F4 |  |  |  |  |  |  |  |  |  |  |  |  |  |  |  |  |  |  |  |  |  |  |  |  |  |  |  |  |  | 
f2=G2 | A6BA=G2F2 | E4(3D2E2F2E8

@@@ Tune index: 7655
